actions/16/package-broken.svg

<svg xmlns="http://www.w3.org/2000/svg" viewBox="0 0 16 16">
  <defs id="defs3051">
    <style type="text/css" id="current-color-scheme">
      .ColorScheme-Text {
        color:#808080;
      }
      .ColorScheme-NegativeText {
        color:#da4453;
      }
      </style>
  </defs>
  <g transform="translate(-421.71-531.79)">
 <path style="fill:currentColor;fill-opacity:1;stroke:none" 
     d="m426.71 533.79c-.552 0-1 .448-1 1v2h-2v9h6v-1h-5v-7h10v2h1v-3h-2v-2c0-.552-.448-1-1-1zm0 1h6v2h-6z"
     class="ColorScheme-Text"
     />
  <path d="m433.21429 540.79074a2.499985 2.499985 0 0 0 -2.5 2.5 2.499985 2.499985 0 0 0 2.5 2.5 2.499985 2.499985 0 0 0 2.5 -2.5 2.499985 2.499985 0 0 0 -2.5 -2.5m0 1a1.5 1.5 0 0 1 .64453 .14844l-1.996 1.996a1.5 1.5 0 0 1 -.14844 -.64453 1.5 1.5 0 0 1 1.5 -1.5m1.35156.85547a1.5 1.5 0 0 1 .14844 .64453 1.5 1.5 0 0 1 -1.5 1.5 1.5 1.5 0 0 1 -.64453 -.14844z"  style="fill:currentColor;fill-opacity:1;stroke:none" 
     class="ColorScheme-NegativeText"
    />
</g>
</svg>

<svg xmlns="http://www.w3.org/2000/svg" version="1.1" viewBox="0 0 16 16">
 <defs>
  <style id="current-color-scheme" type="text/css">
   .ColorScheme-Text { color:#808080; } .ColorScheme-NegativeText { color:#da4453; }
  </style>
 </defs>
 <g transform="translate(-421.71,-531.79)">
  <path class="ColorScheme-Text" d="M 426.71,533.79 C 426.16,533.79 425.71,534.24 425.71,534.79 V 536.79 H 423.71 V 545.79 H 429.71 V 544.79 H 424.71 V 537.79 H 434.71 V 539.79 H 435.71 V 536.79 H 433.71 V 534.79 C 433.71,534.24 433.26,533.79 432.71,533.79 Z M 426.71,534.79 H 432.71 V 536.79 H 426.71 Z" style="color:#808080;fill:currentColor"/>
  <path class="ColorScheme-NegativeText" d="M 433.21,540.79 A 2.5,2.5 0 0 0 430.71,543.29 2.5,2.5 0 0 0 433.21,545.79 2.5,2.5 0 0 0 435.71,543.29 2.5,2.5 0 0 0 433.21,540.79 M 433.21,541.79 A 1.5,1.5 0 0 1 433.86,541.94 L 431.86,543.94 A 1.5,1.5 0 0 1 431.71,543.29 1.5,1.5 0 0 1 433.21,541.79 M 434.57,542.65 A 1.5,1.5 0 0 1 434.71,543.29 1.5,1.5 0 0 1 433.21,544.79 1.5,1.5 0 0 1 432.57,544.64 Z" style="color:#da4453;fill:currentColor"/>
 </g>
</svg>
